packages/core/src/svgs/tokens/mono/RDD.svg

<svg width="24" height="24" viewBox="0 0 24 24" fill="none" xmlns="http://www.w3.org/2000/svg">
<path d="M8.15576 21.2219C8.81694 21.4633 9.50021 21.6394 10.196 21.7476L9.40586 20.1069L8.15576 21.2219Z" fill="white"/>
<path d="M18.3072 8.95446H18.4122C20.3903 8.95446 21.9998 7.4291 21.9998 5.5669C21.975 4.63952 21.5833 3.75987 20.9108 3.12091C20.2382 2.48193 19.3397 2.13579 18.4122 2.15843C17.5046 2.13472 16.623 2.46325 15.9524 3.07519C15.2817 3.68712 14.8738 4.53491 14.8145 5.44088C15.5078 5.90872 16.1556 6.4406 16.7496 7.02955C17.4023 7.68174 17.9387 8.40739 18.3072 8.95446Z" fill="white"/>
<path d="M10.6372 21.8002C10.9346 21.8301 11.2332 21.8444 11.5318 21.8426H11.542C12.531 21.8426 13.4884 21.685 14.404 21.4007L13.8354 16.1826L9.71143 19.8437L10.6372 21.8002Z" fill="white"/>
<path d="M14.1729 15.8881L14.7516 21.2746V21.2848C16.973 20.4887 18.8201 18.8969 19.9355 16.8176C21.0511 14.7381 21.3556 12.3189 20.7904 10.0278L14.1729 15.8881Z" fill="white"/>
<path d="M14.3724 4.27267C14.4984 3.95898 14.657 3.65932 14.8454 3.3786H14.8561C14.176 3.12717 13.4705 2.95093 12.752 2.85303L14.1197 15.4351L20.6953 9.62757L20.5061 9.04944C20.2059 9.2035 19.8925 9.33023 19.5696 9.42808C19.6391 9.54215 19.699 9.66172 19.7488 9.78588C19.7732 9.84107 19.7769 9.90336 19.7594 9.96119C19.742 10.019 19.7042 10.0688 19.6532 10.1012L19.0225 10.5431C18.9756 10.5751 18.9209 10.5932 18.8642 10.5957H18.8014C18.764 10.5861 18.7288 10.5691 18.698 10.5455C18.6672 10.5221 18.6415 10.4926 18.6224 10.459C18.307 9.93332 17.4965 8.59672 16.3081 7.4082C15.1297 6.20834 13.8671 5.43013 13.3934 5.14584C13.3402 5.11545 13.3 5.06646 13.2805 5.00828C13.2612 4.95008 13.264 4.88678 13.2883 4.8305L13.5201 4.17831C13.5446 4.11067 13.5934 4.05451 13.6568 4.02064C13.6894 4.00406 13.7254 3.99542 13.762 3.99542C13.7985 3.99542 13.8345 4.00406 13.8671 4.02064C13.9483 4.04751 14.0463 4.10006 14.1615 4.16219C14.2266 4.19742 14.2964 4.23504 14.3724 4.27267Z" fill="white"/>
<path d="M9.53219 19.4967L13.7823 15.7304H13.793L12.9509 8.0708L5.23926 10.5118L9.53219 19.4967Z" fill="white"/>
<path d="M2.03165 11.5427L2 12.3114C1.99978 14.1756 2.54567 15.9992 3.57023 17.5567C4.5948 19.1142 6.05317 20.3374 7.7652 21.0753L9.23796 19.7602L4.87215 10.6392L2.03165 11.5427Z" fill="white"/>
<path d="M3.34107 7.44971C2.66258 8.58056 2.23411 9.8436 2.08447 11.1538L4.71472 10.3117L3.34107 7.44971Z" fill="white"/>
<path d="M12.3732 2.81098C12.0966 2.78973 11.8193 2.77916 11.542 2.77932C9.96332 2.7761 8.4087 3.16585 7.01832 3.91343C5.62794 4.66101 4.4455 5.74291 3.57764 7.06156L5.08269 10.1858L12.8994 7.69225L12.3732 2.81098Z" fill="white"/>
</svg>

<svg xmlns="http://www.w3.org/2000/svg" width="24" height="24" fill="none" viewBox="0 0 24 24">
    <path fill="#fff" d="M8.156 21.222c.66.241 1.344.417 2.04.526l-.79-1.641zM18.307 8.954h.105C20.39 8.954 22 7.43 22 5.567a3.503 3.503 0 0 0-3.588-3.409 3.513 3.513 0 0 0-3.597 3.283q1.041.704 1.935 1.589a13 13 0 0 1 1.557 1.924M10.637 21.8q.447.045.895.043h.01c.989 0 1.946-.158 2.862-.442l-.569-5.218-4.124 3.66zm3.536-5.912.579 5.387v.01a9.53 9.53 0 0 0 6.038-11.257z"/>
    <path fill="#fff" d="M14.372 4.273q.19-.473.473-.894h.011a10 10 0 0 0-2.104-.526l1.368 12.582 6.575-5.807-.189-.579q-.451.232-.936.38.105.17.179.357a.25.25 0 0 1-.096.315l-.63.442a.3.3 0 0 1-.159.053h-.063a.3.3 0 0 1-.179-.137c-.315-.526-1.125-1.862-2.314-3.05-1.178-1.2-2.44-1.979-2.915-2.263a.25.25 0 0 1-.105-.316l.232-.652a.3.3 0 0 1 .137-.157.23.23 0 0 1 .21 0c.081.027.18.08.294.141q.098.054.211.11m-4.84 15.225 4.25-3.767h.011l-.842-7.66-7.712 2.442zm-7.5-7.954L2 12.31a9.54 9.54 0 0 0 5.765 8.764l1.473-1.315-4.366-9.12zM3.341 7.45a9.2 9.2 0 0 0-1.257 3.704l2.63-.842zm9.032-4.639a11 11 0 0 0-.831-.032 9.51 9.51 0 0 0-7.964 4.283l1.505 3.124 7.816-2.494z"/>
</svg>
